X:129
T:Caro Dolce. RHu.129
S:R.Hughes MS,1823,Whitchurch,Shrops.
A:Whitchurch, Shropshire
Z:Tony Weatherall 2006
M:2/4
L:1/8
Q:1/4=100
R:Reel
K:D
d/c/|d/A/f/d/ B/G/g/e/|c/e/a/g/ g/f/e/d/|d/A/f/d/ B/E/e/d/|c/A/B/c/ d:|!
|:f/e/|df/a/ gg/b/|a/b/a/g/ ff/e/|df/a/ gg/b/|acd:|

